X:1
T:„Дѣва днесь“
T:Кондак Рождеству Христову
T:Д. Бортнянский (1751-1825)
T:by Mutopia-2008/02/19-1323
T:by Mutopia-2008/02/19-1323
T:by Mutopia-2008/02/19-1323
T:by Mutopia-2008/02/19-1323
C:Dmytro Stepanovyč Bortnjans'kyj
Z:Anonymous
Z:by Mutopia-2008/02/19-1323
%%score [ ( 1 2 ) 3 ( 4 5 ) 6 ]
L:1/8
Q:1/4=160
M:2/2
K:C
V:1 treble nm="Oboe"
V:2 treble 
V:3 treble transpose=-7 nm="English Horn"
V:4 treble-8 nm="Baritone"
V:5 treble-8 
V:6 bass nm="Bass"
V:1
 ([ce]8 | [Bd]6 [ce]2 | [Bd]4 [Ac]4) | [^GB]4 z4 | [Ac]4 [Bd]4 | [ce]4 z4 | [ce]4 [Bd]4 | %7
 [ce]4 ([df]4 | [ce]4 [Bd]2) [Bd]2 | [ce]6 z2 | ([Bd]4 [ce]4 | [Bd]2 [GB]2 [Ac]2 [Bd]2) | %12
 [ce]4 [ce]2 z2 | ([ce]2 [Bd]2 e2 ^f2) | [Bg]8 | [Bg]4 z4 | ([ce]8 | [Bd]6 [ce]2 | [Bd]4) [Ac]4 | %19
 [^GB]4 z4 | [Ac]4 [Bd]4 | [ce]4 z4 | [ce]4 [Bd]4 | [ce]4 [df]4 | [ce]4 [Bd]2 [Bd]2 | [ce]8 | %26
 ([Bd]4 [ce]4 | [Bd]2 [GB]2 [Ac]2 [Bd]2) | [ce]4 [ce]2 z2 | ([ce]2 [Bd]2 e2 ^f2) | [Bg]8 | %31
 [Bg]4 z4 | ([ce]8 | [Bd]6 [ce]2 | [Bd]4) [Ac]4 | [^GB]4 z4 | [Ac]4 [Bd]4 | [ce]4 z4 | %38
 [ce]4 [Bd]4 | [ce]4 ([df]4 | [ce]2) [ce]2 [Bd]4 | [ce]6 z2 | ([Bd]4 [ce]4 | %43
 [Bd]2 [GB]2 [Ac]2 [Bd]2) | [ce]4 [ce]2 z2 | ([ce]2 [Bd]2 [ce]2) [c^f]2 | [Bg]8 | [Bg]4 z4 | %48
 [ce]8 | ([Bd]6 [ce]2 | [Bd]4 [Ac]4) | [^GB]4 z4 | [Ac]4 [Bd]4 | [ce]4 z4 | [ce]4 [Bd]4 | %55
 [ce]4 [df]4 | [ce]2 [ce]2 [Bd]3 [Bd] | [ce]6 z2 | ([Bd]4 [ce]4 | [Bd]2 [GB]2 [Ac]2) [Bd]2 | %60
 [ce]3 [ce] [ce]2 z2 | ([ce]2 [Bd]2 [ce]2) [c^f]2 | [Bg]6 [Bg]2 | [Bg]4 z4 | [ce]8 | %65
 ([Bd]6 [ce]2) | ([Bd]4 [Ac]4) | [^GB]4 z4 | ([Ac]4 [Bd]4) | [ce]4 [ce]2 z2 | [ce]4 [Bd]4 | %71
 ([ce]4 [df]4) | ([ce]4 [Bd]4) | [ce]6 z2 | ([Bd]4 [ce]4) | ([Bd]2 [GB]2 [Ac]2) [Bd]2 | [ce]4 z4 | %77
 ([ce]2 [Bd]2) [ce]2 [c^f]2 | [Bg]4 [cg]4 | [d=f]8- | [df]4 [Bd]4 | !fermata![ce]8 |] %82
V:2
 x8 | x8 | x8 | x8 | x8 | x8 | x8 | x8 | x8 | x8 | x8 | x8 | x8 | x4 c4 | x8 | x8 | x8 | x8 | x8 | %19
 x8 | x8 | x8 | x8 | x8 | x8 | x8 | x8 | x8 | x8 | [ce]2 [Bd]2 c4 | x8 | x8 | x8 | x8 | x8 | x8 | %36
 x8 | x8 | x8 | x8 | x8 | x8 | x8 | x8 | x8 | x8 | x8 | x8 | x8 | x8 | x8 | x8 | x8 | x8 | x8 | %55
 x8 | x8 | x8 | x8 | x8 | x8 | x8 | x8 | x8 | x8 | x8 | x8 | x8 | x8 | x8 | x8 | x8 | x8 | x8 | %74
 x8 | x8 | x8 | x8 | x8 | x8 | B4 x4 | x8 |] %82
V:3
 (G8- | G8- | G4 E4) | E4 z4 | E4 G4 | G4 z4 | G4 G4 | G4 G4- | G6 G2 | G8 | G8- | G8 | G4 G2 z2 | %13
w: Дѣ-|||ва,|Дѣ\- ва|днесь|Пре\- су\-|ще\- ствен-|* на\-|го|раж-||да\- етъ,|
 A8 | D8 | D4 z4 | G8- | G8- | G4 E4 | E4 z4 | (E4 G4) | G4 z4 | G4 G4 | G8- | G6 G2 | G6 z2 | %26
w: раж\-|да\-|етъ,|и|_|* зем\-|ля|вер- *|тепъ|Не\-\- при\-|ступ-|* но\-|му|
 G8- | G8 | G4 G2 z2 | A8 | D8 | D4 z4 | G8- | G8- | G4 E4 | E4 z4 | E4 G4 | G4 z4 | G4 G4 | %39
w: при-||но\- ситъ,|при\-|но\-|ситъ:|Ан|~-|* ге\-|ли,|Ан\- ге\-|ли|съ‿па\- стырь\-|
 G4 G4- | G2 G2 G4 | G6 z2 | G8- | G6 G2 | G4 G2 z2 | A6 A2 | D8 | D4 z4 | G8 | (G8- | G4 E4) | %51
w: ми сла\-|* во\- сло\-|вятъ,|сла-|* во\-|сло\- вятъ,|сла\- во\-|сло\-|вятъ,|вол\-|сви||
 E4 z4 | E4 G4 | G4 z4 | G4 G4 | G4 G4 | G2 G2 G3 G | G8 | G8- | G6 G2 | G3 G G2 z2 | A6 A2 | %62
w: же,|вол\- сви|же|со звѣз\-|до\- ю|пу\- те\- шес\- тву\-|ютъ,|пу-|* те\-|шес\- тву\- ютъ,|пу\- те\-|
 D6 D2 | D4 z4 | G8 | G8 | (G4 E4) | E4 z4 | (E4 G4) | G4 G2 z2 | G4 G4 | G8 | G8 | G6 z2 | G8 | %75
w: шес\- тву\-|ютъ:|насъ|бо|ра- *|ди|ро- *|ди\- ся|От\- ро\-|ча|мла|до,|Пре\-|
 G6 G2 | G4 z4 | A4 A2 A2 | D4 G4 | (A8 | G4) G4 | !fermata!G8 |] %82
w: вѣч\- ный|Богъ,|Пре\- вѣч ный|Богъ, Пре\-|вѣч-|* ный|Богъ.|
V:4
 ([ce]8 | [Bd]6 [ce]2 | [Bd]4 [Ac]4) | [^GB]4 z4 | [Ac]4 [Bd]4 | [ce]4 z4 | [ce]4 [Bd]4 | %7
 ([ce]4 [df]4 | [ce]4 [Bd]2) [Bd]2 | [ce]6 z2 | ([Bd]4 [ce]4 | [Bd]2 [GB]2 [Ac]2 [Bd]2) | %12
 [ce]4 [ce]4 | ([ce]2 [Bd]2 e2 ^f2) | [Bg]8 | [Bg]4 z4 | ([ce]8 | [Bd]6 [ce]2 | [Bd]4) [Ac]4 | %19
 [^GB]4 z4 | ([Ac]4 [Bd]4) | [ce]4 z4 | [ce]4 [Bd]4 | ([ce]4 [df]4 | [ce]4 [Bd]2) [Bd]2 | %25
 [ce]6 z2 | ([Bd]4 [ce]4 | [Bd]2) [GB]2 [Ac]2 [Bd]2 | [ce]4 [ce]4 | ([ce]2 [Bd]2 e2 ^f2) | [Bg]8 | %31
 [Bg]4 z4 | ([ce]8 | [Bd]6 [ce]2 | [Bd]4) [Ac]4 | [^GB]4 z4 | [Ac]4 [Bd]4 | [ce]4 z4 | %38
 [ce]4 [Bd]4 | [ce]4 ([df]4 | [ce]2) [ce]2 [Bd]4 | [ce]6 z2 | ([Bd]4 [ce]4 | %43
 [Bd]2 [GB]2 [Ac]2) [Bd]2 | [ce]4 [ce]2 z2 | ([ce]2 [Bd]2 [ce]2) [c^f]2 | [Bg]8 | [Bg]4 z4 | %48
 [ce]8 | ([Bd]6 [ce]2 | [Bd]4 [Ac]4) | [^GB]4 z4 | [Ac]4 [Bd]4 | [ce]4 z4 | [ce]4 [Bd]4 | %55
 [ce]4 [df]4 | [ce]2 [ce]2 [Bd]3 [Bd] | [ce]8 | ([Bd]4 [ce]4 | [Bd]2 [GB]2 [Ac]2) [Bd]2 | %60
 [ce]3 [ce] [ce]2 z2 | [ce]2 [Bd]2 [ce]2 [c^f]2 | [Bg]6 [Bg]2 | [Bg]4 z4 | [ce]8 | ([Bd]6 [ce]2) | %66
 ([Bd]4 [Ac]4) | [^GB]4 z4 | ([Ac]4 [Bd]4) | [ce]4 [ce]2 z2 | [ce]4 [Bd]4 | ([ce]4 [df]4) | %72
 ([ce]4 [Bd]4) | [ce]6 z2 | ([Bd]4 [ce]4) | ([Bd]2 [GB]2 [Ac]2) [Bd]2 | [ce]4 z4 | %77
 ([ce]2 [Bd]2) [ce]2 [c^f]2 | [Bg]4 [cg]4 | [d=f]8- | [df]4 [Bd]4 | !fermata![ce]8 |] %82
V:5
 x8 | x8 | x8 | x8 | x8 | x8 | x8 | x8 | x8 | x8 | x8 | x8 | x8 | x4 c4 | x8 | x8 | x8 | x8 | x8 | %19
 x8 | x8 | x8 | x8 | x8 | x8 | x8 | x8 | x8 | x8 | x4 c4 | x8 | x8 | x8 | x8 | x8 | x8 | x8 | x8 | %38
 x8 | x8 | x8 | x8 | x8 | x8 | x8 | x8 | x8 | x8 | x8 | x8 | x8 | x8 | x8 | x8 | x8 | x8 | x8 | %57
 x8 | x8 | x8 | x8 | x8 | x8 | x8 | x8 | x8 | x8 | x8 | x8 | x8 | x8 | x8 | x8 | x8 | x8 | x8 | %76
 x8 | x8 | x8 | x8 | B4 x4 | x8 |] %82
V:6
 (C8 | G,6 C2 | G,4 A,4) | E,4 z4 | A,4 G,4 | C,4 z4 | C4 G,4 | E,4 (B,,4 | C,2 E,2 G,2) G,,2 | %9
 (C,2 D,2 E,2 F,2) | (G,4 C4 | G,8) | C4 C,2 z2 | (A,6 D,2) | G,8 | G,,4 z4 | (C8 | G,6 C2 | %18
 G,4) A,4 | E,4 z4 | (A,4 G,4) | C,4 z4 | C4 G,4 | (E,4 B,,4 | C,2 E,2 G,2) G,,2 | %25
 (C,2 D,2 E,2 F,2) | (G,4 C4 | G,8) | C4 C,2 z2 | (A,6 D,2) | G,8 | G,,4 z4 | (C8 | G,6 C2 | %34
 G,4) A,4 | E,4 z4 | A,4 G,4 | C,4 z4 | C4 G,4 | E,4 (B,,4 | C,2) E,2 G,4 | (C,2 D,2 E,2 F,2) | %42
 (G,4 C4 | G,6) G,2 | C4 C,2 z2 | A,6 D,2 | G,8 | G,,4 z4 | C8 | (G,6 C2 | G,4 A,4) | E,4 z4 | %52
 A,4 G,4 | C,4 z4 | C4 G,4 | E,4 B,,4 | C,2 E,2 G,3 G,, | (C,2 D,2 E,2 F,2) | (G,4 C4 | G,6) G,2 | %60
 C3 C, C,2 z2 | A,6 D,2 | G,6 G,,2 | G,,4 z4 | C8 | (G,6 C2) | (G,4 A,4) | E,4 z4 | (A,4 G,4) | %69
 C4 C,2 z2 | C4 G,4 | (E,4 B,,4) | (C,2 E,2 G,4) | (C,2 D,2 E,2 F,2) | (G,4 C4) | G,6 G,2 | C4 z4 | %77
 A,4 A,2 D,2 | G,4 E,4 | (F,8 | G,4) G,,4 | !fermata!C,8 |] %82

